X: 366
T: Jie hun
L: 1/8
M: 2/4
K: G
dA2A/ B/ [I:setbarnb 1]| 
d Fz2 | 
dA2B/ A/ | 
G2z2 | 
dA2A/ B/ | 
d Fz2 | 
G A B A | 
GA2E | 
D2z2 |]

@@@ Tune index: 9240
